X: 35459
T: Rowing From Isla To Uist
R: jig
M: 6/8
K: Bminor
F|:B2B d2e|c2B c2e|B2B f2f|g>fe f2c|
d2d e2d|c2B c2f|gfe f2c|1 d2B AGF:|2 B2c Hd2A||
|:F2F F2E|F2F d2e|c2B A2F|E2D E2G|
F2F F2E|F2F d2e|c2B A>Bc|1 B3-B2A:|2 B3-B2||

